symbols/web/22mp/materialsymbolsoutlined/22mp_gradN25fill1_40px.svg

<svg xmlns="http://www.w3.org/2000/svg" height="40" width="40"><path d="M10.667 18.875h7.041v-2.167h-4.916v-2.041h3.291q.625 0 1.125-.521t.5-1.104v-2.375q0-.625-.5-1.125t-1.125-.5h-5.416v2.125h4.916v2.083h-3.291q-.584 0-1.104.521-.521.521-.521 1.104Zm11.375 0h7.083v-2.167h-4.917v-2.041h3.25q.625 0 1.146-.521.521-.521.521-1.104v-2.375q0-.625-.521-1.125t-1.146-.5h-5.416v2.125h4.916v2.083h-3.25q-.625 0-1.146.521-.52.521-.52 1.104ZM9.958 30.958h2.125v-7.666h2.042v5.125h2.167v-5.125h2.25v7.666h2.166v-8.166q0-.625-.52-1.146-.521-.521-1.146-.521h-7.459q-.625 0-1.125.521t-.5 1.146Zm13 0h2.167v-2.541h3.25q.625 0 1.146-.521.521-.521.521-1.104v-4q0-.625-.521-1.146-.521-.521-1.146-.521h-5.417Zm2.167-4.666v-3h2.75v3ZM7.875 34.75q-1.042 0-1.833-.792-.792-.791-.792-1.833V7.875q0-1.042.792-1.833.791-.792 1.833-.792h24.25q1.042 0 1.833.792.792.791.792 1.833v24.25q0 1.042-.792 1.833-.791.792-1.833.792Z"/></svg>

<svg xmlns="http://www.w3.org/2000/svg" height="40" width="40"><path d="M10.667 18.875H17.708V16.708H12.792V14.667H16.083Q16.708 14.667 17.208 14.146Q17.708 13.625 17.708 13.042V10.667Q17.708 10.042 17.208 9.542Q16.708 9.042 16.083 9.042H10.667V11.167H15.583V13.25H12.292Q11.708 13.25 11.188 13.771Q10.667 14.292 10.667 14.875ZM22.042 18.875H29.125V16.708H24.208V14.667H27.458Q28.083 14.667 28.604 14.146Q29.125 13.625 29.125 13.042V10.667Q29.125 10.042 28.604 9.542Q28.083 9.042 27.458 9.042H22.042V11.167H26.958V13.25H23.708Q23.083 13.25 22.562 13.771Q22.042 14.292 22.042 14.875ZM7.875 34.75Q6.833 34.75 6.042 33.958Q5.25 33.167 5.25 32.125V7.875Q5.25 6.833 6.042 6.042Q6.833 5.25 7.875 5.25H32.125Q33.167 5.25 33.958 6.042Q34.75 6.833 34.75 7.875V32.125Q34.75 33.167 33.958 33.958Q33.167 34.75 32.125 34.75ZM11.583 21.125Q10.958 21.125 10.458 21.646Q9.958 22.167 9.958 22.792V30.958H12.083V23.292H14.125V28.417H16.292V23.292H18.542V30.958H20.708V22.792Q20.708 22.167 20.188 21.646Q19.667 21.125 19.042 21.125ZM22.958 21.125V30.958H25.125V28.417H28.375Q29 28.417 29.521 27.896Q30.042 27.375 30.042 26.792V22.792Q30.042 22.167 29.521 21.646Q29 21.125 28.375 21.125ZM25.125 23.292H27.875V26.292H25.125Z"/></svg>
